packages/core/src/svgs/tokens/branded/HVH.svg

<svg width="24" height="24" viewBox="0 0 24 24" fill="none" xmlns="http://www.w3.org/2000/svg">
<path d="M10.6169 11.4723L10.4835 11.289L10.5391 11.2555L10.6668 11.439L10.6169 11.4723ZM13.4113 11.0445L13.1668 10.9556L13.1891 10.9001L13.4279 10.9889L13.4113 11.0445ZM13.7501 11.4222L13.3835 11.3L13.4057 11.2445L13.7669 11.3612L13.7501 11.4167V11.4222ZM12.0001 10.8722L11.8946 10.7834L11.9335 10.739L12.0446 10.8278L12.0057 10.8722H12.0001ZM11.5612 11.0501H11.3057V10.9889H11.5612V11.0501ZM13.3447 10.7556L12.8057 10.5166L12.8335 10.4612L13.3668 10.7001L13.3447 10.7556ZM10.5557 10.8445L10.3335 10.9667L10.3002 10.9167L10.5224 10.7944L10.5557 10.8501V10.8445ZM11.3169 11.8889H10.8446V11.8279H11.3169V11.8889ZM10.0391 11.8945L9.8501 11.6889L9.89456 11.65L10.0834 11.8556L10.0391 11.8945ZM13.2168 10.0779C12.9797 9.92709 12.7185 9.81807 12.4446 9.75559L12.4612 9.69998C12.6058 9.72785 12.9724 9.83894 13.2502 10.0334L13.2168 10.0779ZM11.1502 10.0278C10.8891 10.1056 10.6613 10.2444 10.5835 10.3L10.5447 10.25C10.6279 10.1945 10.8612 10.0556 11.1334 9.9722L11.1502 10.0278Z" fill="white"/>
<path d="M11.5449 9.94444C12.1783 9.88896 13.5837 10.0834 14.1004 11.3444C13.895 11.1055 13.4672 10.1778 11.5449 9.94444ZM12.3783 12.5777C12.0909 12.5928 11.8044 12.5355 11.5449 12.4112C11.6893 12.4278 12.0449 12.4556 12.3783 12.4556C12.7116 12.4556 13.2505 12.2277 13.4726 12.1166C13.167 12.3841 12.7831 12.5457 12.3783 12.5777Z" fill="white"/>
<path fill-rule="evenodd" clip-rule="evenodd" d="M20.8887 6.99445L11.9997 2L3.11084 6.99445V16.9778L11.9997 22L20.8887 16.9778V6.99445ZM18.6664 7.55557L12.5553 4.22223V9.50007C12.2775 9.40002 12.2053 9.46662 11.8886 9.46662C11.6553 9.46662 11.6664 9.16668 11.4441 9.22223V4.22223L5.33306 7.55557L10.0553 10.0555C9.6442 10.3889 9.37196 10.6556 9.22195 11.1667L4.7775 8.66668V15.3334L9.22195 12.8334C9.33307 13.3555 9.39417 13.5888 9.77746 13.9444L5.33306 16.4445L11.4441 19.7778V14.7778C11.6664 14.8333 11.6553 14.7778 11.8886 14.7778C12.2053 14.7778 12.2775 14.8778 12.5553 14.7778V19.7778L18.6664 16.4445L13.8331 13.9055C14.2054 13.5297 14.4535 13.0489 14.5442 12.5278L19.2219 15.3334V8.66668L14.7775 11.1667C14.6497 10.65 14.333 10.4 13.9442 10.0555L18.6664 7.55557Z" fill="#76928C"/>
<path d="M13.7784 12.2778C13.2253 12.6338 12.5805 12.8209 11.9228 12.8167C11.095 12.8167 10.3451 12.5389 9.78947 12.0778L9.77832 12.2556C10.2117 12.4945 11.0339 12.8944 11.4505 12.8944C11.7895 12.8944 12.0562 12.8723 12.2616 12.85C12.4006 12.839 12.5173 12.8278 12.6172 12.8278C11.6895 13.3222 10.3784 12.7722 9.78389 12.4112C9.86167 13.4223 10.8283 14.2222 12.0006 14.2222C13.2228 14.2222 14.2228 13.3501 14.2228 12.2778C14.2228 12.1834 14.2172 12.0889 14.2006 12C13.9061 12.7333 12.9006 13.0001 12.4228 13.039C12.5061 12.9945 12.6062 12.9556 12.7173 12.9167C12.9229 12.8334 13.1784 12.7389 13.4562 12.5444C13.5617 12.4722 13.6728 12.3779 13.7784 12.2778Z" fill="white"/>
<path d="M11.1446 9.22224C11.0391 9.01668 11.0335 8.38891 11.8113 7.27779C12.2279 6.63891 12.3113 5.93891 12.3113 5.33334L12.389 5.52224C12.5557 5.91668 12.6668 6.19446 12.6668 6.57779C12.6668 6.98335 12.5557 7.43891 12.4557 7.86668C12.4335 7.97779 12.1168 9.19446 12.3613 9.22224C12.3724 9.11113 12.4446 8.82224 12.6724 8.5889C12.8057 8.45002 12.9779 8.32779 13.1668 8.20001C13.3724 8.06113 13.589 7.91668 13.7724 7.72224C14.0502 7.4278 14.1446 7.28335 14.1335 7.25002C14.1779 7.31113 14.228 7.43891 14.2224 7.61113C14.2168 7.79445 14.0946 8.03335 13.8891 8.30557C13.3946 8.97224 13.2946 9.23334 13.3335 9.46118C13.4057 9.23891 13.8668 8.73891 15.189 8.48335C15.8479 8.30197 16.4391 7.93107 16.889 7.41669L16.8168 7.61113C16.7088 7.95933 16.529 8.28106 16.2891 8.55557C16.0113 8.85558 15.6224 9.11113 15.2558 9.35557L15.2335 9.36668C14.8669 9.61116 14.5224 9.83892 14.2669 10.2001C14.3724 10.1277 14.6113 10.0111 14.9112 10.0111C15.1057 10.0111 15.3113 10.0611 15.5335 10.1056C15.7724 10.1612 16.0334 10.2167 16.2946 10.2167C16.7001 10.2167 16.8335 10.15 16.8501 10.1167C16.8279 10.2833 16.6113 10.6278 15.9557 10.7056C15.1336 10.8056 14.8779 10.9111 14.7447 11.0945C14.9446 10.9944 15.628 10.9833 16.728 11.7722C17.3668 12.1888 18.0612 12.2722 18.6669 12.2722L18.478 12.35C18.0835 12.5167 17.8113 12.6278 17.428 12.6278C17.0224 12.6278 16.5669 12.5167 16.1391 12.4222C15.6501 12.3055 15.2502 12.1888 14.9613 12.2666C14.8853 12.2979 14.8211 12.3523 14.778 12.4222C14.9112 12.4556 15.1113 12.5389 15.3001 12.7167C15.4391 12.85 15.5613 13.0278 15.689 13.2167C15.828 13.4167 15.9724 13.6333 16.1668 13.8167C16.4612 14.0944 16.6058 14.1389 16.6391 14.1279C16.5113 14.2278 16.1168 14.3333 15.5835 13.9389C15.5169 13.8834 14.5724 13.1666 14.4446 13.3944C14.6669 13.4778 15.1557 13.9444 15.4168 15.2445C15.5847 15.9158 15.9414 16.525 16.4446 17.0001L16.2558 16.9279C15.9137 16.8037 15.6028 16.6065 15.3446 16.35C15.0502 16.0723 14.789 15.6834 14.5502 15.3167C14.2724 14.9056 14.0279 14.5278 13.7724 14.3722C13.8335 14.5 13.8891 14.6833 13.8891 14.9001C13.8891 15.0945 13.8446 15.3 13.8002 15.5223C13.7446 15.7612 13.7001 16.0111 13.7001 16.2778C13.7001 16.6834 13.7557 16.8278 13.789 16.8445C13.6225 16.8166 13.2779 16.6056 13.2001 15.9445C13.1058 15.1444 13.0001 14.8833 12.828 14.7445H12.8168C12.9113 14.9667 12.9002 15.6389 12.1391 16.7223C11.7866 17.3079 11.6129 17.9837 11.639 18.6667L11.5612 18.4778C11.4002 18.0834 11.2836 17.8056 11.2836 17.4223C11.2836 17.0167 11.3946 16.5611 11.4946 16.1334C11.6263 15.7268 11.6735 15.2976 11.6336 14.8722C11.6336 14.8444 11.628 14.8223 11.5891 14.8167C11.5724 14.9445 11.489 15.1944 11.2836 15.4112C11.1502 15.55 10.9724 15.6723 10.7834 15.8001C10.5668 15.9372 10.3656 16.0973 10.1835 16.2778C9.90572 16.5723 9.85568 16.7167 9.8724 16.75C9.77233 16.6222 9.66681 16.2223 10.0613 15.6944C10.5613 15.0277 10.6558 14.7667 10.6169 14.5389C10.5501 14.7611 10.0834 15.2611 8.76128 15.5167C8.09736 15.6505 7.48597 15.9726 7.00017 16.4445L7.07795 16.2556C7.22794 15.8556 7.40017 15.7167 7.66128 15.4389C7.93905 15.1444 8.32794 14.8833 8.70017 14.6444C9.08455 14.4046 9.42777 14.1045 9.71685 13.7556C9.60576 13.8278 9.37794 13.9334 9.08906 13.9334C8.89462 13.9334 8.68906 13.8889 8.46684 13.8389C8.22795 13.7833 7.96683 13.7278 7.70572 13.7278C7.30017 13.7278 7.16684 13.7944 7.15017 13.8278C7.1724 13.6612 7.38906 13.3166 8.04461 13.2389C8.86684 13.1389 9.08906 13.0334 9.22239 12.85C9.0224 12.95 8.37239 12.9612 7.27794 12.1723C6.69292 11.8184 6.01667 11.6444 5.3335 11.6723L5.52239 11.5945C5.91683 11.4278 6.18905 11.3167 6.57239 11.3167C6.97795 11.3167 7.4335 11.4278 7.86128 11.5277C8.35017 11.639 8.80573 11.7501 9.0835 11.6723C9.15573 11.6723 9.15017 11.6167 9.17795 11.5945C8.99169 11.5093 8.81479 11.4051 8.65016 11.2834C8.50325 11.1308 8.3729 10.9633 8.26129 10.7834C8.12795 10.5834 7.9835 10.3666 7.7835 10.1833C7.48906 9.90555 7.34461 9.86109 7.31128 9.87224C7.43906 9.77229 7.83351 9.66664 8.36683 10.0611C9.0335 10.5501 9.28906 10.65 9.51683 10.6056C9.30017 10.5445 8.79461 10.0834 8.53351 8.75557C8.38257 8.08877 8.04317 7.47939 7.55573 7.00002C7.62239 7.0278 7.6835 7.05556 7.74461 7.07224C8.14462 7.22779 8.3335 7.38891 8.60573 7.65002C8.90017 7.92779 9.16128 8.31668 9.40572 8.68335C9.67238 9.09446 9.92244 9.4722 10.1779 9.62776C10.1223 9.50007 10.0613 9.31668 10.0613 9.10002C10.0613 8.90558 10.1057 8.70002 10.1558 8.4778C10.2113 8.2389 10.2669 7.97779 10.2669 7.71113C10.2669 7.30557 10.1947 7.17223 10.1613 7.15557C10.3279 7.18335 10.6723 7.39446 10.7501 8.05557C10.8502 8.8778 10.9557 9.08891 11.139 9.22224H11.1446ZM11.9391 14.7056C12.639 14.7056 13.3102 14.4276 13.805 13.9326C14.2999 13.4378 14.578 12.7666 14.578 12.0667C14.578 11.3669 14.2999 10.6956 13.805 10.2007C13.3102 9.70579 12.639 9.42774 11.9391 9.42774C11.2347 9.42333 10.5571 9.69776 10.0544 10.1911C9.55157 10.6845 9.26452 11.3568 9.25573 12.0612C9.25573 13.5166 10.4835 14.7056 11.9391 14.7056Z" fill="white"/>
</svg>

<svg xmlns="http://www.w3.org/2000/svg" width="24" height="24" fill="none" viewBox="0 0 24 24">
    <path fill="#fff" d="m10.617 11.472-.134-.183.056-.034.128.184zm2.794-.428-.244-.088.022-.056.239.089zm.34.378-.367-.122.022-.056.36.117-.016.056zm-1.75-.55-.106-.089.039-.044.11.089-.038.044zm-.44.178h-.255v-.061h.255zm1.784-.294-.54-.24.029-.055.533.24zm-2.79.088-.221.123-.034-.05.222-.123.034.056zm.762 1.045h-.472v-.061h.472zm-1.278.006-.189-.206.045-.039.188.206zm3.178-1.817a2.5 2.5 0 0 0-.772-.322l.016-.056c.145.028.511.139.79.333zm-2.067-.05a2.1 2.1 0 0 0-.566.272l-.04-.05c.084-.056.317-.194.59-.278z"/>
    <path fill="#fff" d="M11.545 9.944c.633-.055 2.039.14 2.555 1.4-.205-.239-.633-1.166-2.555-1.4m.833 2.634a1.7 1.7 0 0 1-.833-.167c.144.017.5.045.833.045.334 0 .873-.228 1.095-.34-.306.268-.69.43-1.095.462"/>
    <path fill="#76928C" fill-rule="evenodd" d="M20.889 6.994 11.999 2 3.112 6.994v9.984L12 22l8.889-5.022zm-2.223.562-6.11-3.334V9.5c-.278-.1-.35-.033-.667-.033-.234 0-.223-.3-.445-.245v-5l-6.11 3.334 4.721 2.5c-.41.333-.683.6-.833 1.11l-4.444-2.5v6.667l4.444-2.5c.111.522.172.756.555 1.111l-4.444 2.5 6.111 3.334v-5c.222.055.211 0 .445 0 .316 0 .389.1.666 0v5l6.111-3.333-4.833-2.54c.372-.375.62-.856.711-1.377l4.678 2.805V8.667l-4.445 2.5c-.127-.517-.444-.767-.833-1.111z" clip-rule="evenodd"/>
    <path fill="#fff" d="M13.778 12.278a3.4 3.4 0 0 1-1.855.539c-.828 0-1.578-.278-2.134-.74l-.01.179c.433.239 1.255.638 1.672.638.338 0 .605-.022.81-.044.14-.011.256-.022.356-.022-.928.494-2.239-.056-2.833-.417.078 1.011 1.044 1.811 2.217 1.811 1.222 0 2.222-.872 2.222-1.944q.001-.144-.022-.278c-.295.733-1.3 1-1.778 1.039q.126-.065.294-.122c.206-.084.461-.178.74-.373.105-.072.216-.166.321-.266"/>
    <path fill="#fff" d="M11.145 9.222c-.106-.205-.111-.833.666-1.944.417-.64.5-1.34.5-1.945l.078.19c.167.394.278.671.278 1.055 0 .405-.111.86-.211 1.289-.022.11-.34 1.327-.095 1.355.011-.11.084-.4.311-.633.134-.139.306-.261.495-.389.205-.139.422-.283.605-.478.278-.294.373-.439.361-.472a.6.6 0 0 1 .09.361c-.006.183-.128.422-.334.695-.494.666-.594.927-.555 1.155.072-.222.533-.722 1.855-.978a3.5 3.5 0 0 0 1.7-1.066l-.072.194a2.6 2.6 0 0 1-.528.945c-.278.3-.667.555-1.033.8l-.023.01c-.366.245-.71.473-.966.834.105-.072.344-.189.644-.189.195 0 .4.05.623.095.238.055.5.11.76.11.406 0 .54-.066.556-.1-.022.167-.239.512-.894.59-.822.1-1.078.205-1.211.389.2-.1.883-.112 1.983.677.639.417 1.333.5 1.939.5l-.189.078c-.395.167-.667.278-1.05.278-.406 0-.861-.111-1.289-.206-.489-.117-.889-.233-1.178-.155a.4.4 0 0 0-.183.155c.133.034.333.117.522.295.14.133.261.31.389.5.139.2.283.416.478.6.294.277.439.322.472.31-.128.1-.522.206-1.055-.188-.067-.056-1.012-.772-1.14-.545.223.084.712.55.973 1.85A3.6 3.6 0 0 0 16.445 17l-.19-.072a2.5 2.5 0 0 1-.91-.578c-.295-.278-.556-.667-.795-1.033-.278-.411-.522-.79-.778-.945.062.128.117.311.117.528 0 .194-.044.4-.089.622-.055.24-.1.49-.1.756 0 .405.056.55.089.567-.166-.028-.511-.24-.589-.9-.094-.8-.2-1.062-.372-1.2h-.011c.094.222.083.894-.678 1.977a3.5 3.5 0 0 0-.5 1.945l-.078-.19c-.16-.394-.277-.671-.277-1.055 0-.405.11-.86.21-1.289.132-.406.18-.835.14-1.26 0-.029-.006-.05-.045-.056-.017.127-.1.377-.305.594a3 3 0 0 1-.5.39 3.6 3.6 0 0 0-.6.477c-.278.294-.328.439-.312.472-.1-.128-.205-.528.19-1.056.5-.666.594-.927.555-1.155-.067.222-.534.722-1.856.978a3.53 3.53 0 0 0-1.76.928l.077-.19c.15-.4.322-.538.583-.816.278-.295.667-.556 1.04-.795.384-.24.727-.54 1.016-.888a1.2 1.2 0 0 1-.628.177c-.194 0-.4-.044-.622-.094a3.4 3.4 0 0 0-.761-.111c-.406 0-.54.066-.556.1.022-.167.24-.511.895-.59.822-.1 1.044-.205 1.177-.388-.2.1-.85.111-1.944-.678a3.5 3.5 0 0 0-1.944-.5l.188-.078c.395-.166.667-.277 1.05-.277.406 0 .862.11 1.29.21.488.112.944.223 1.222.145.072 0 .066-.055.094-.078a3 3 0 0 1-.528-.31 3 3 0 0 1-.389-.5c-.133-.2-.277-.417-.477-.6-.295-.278-.44-.323-.473-.312.128-.1.523-.205 1.056.19.666.488.922.588 1.15.544-.217-.062-.722-.523-.983-1.85A3.57 3.57 0 0 0 7.556 7c.066.028.128.056.189.072.4.156.589.317.86.578.295.278.556.667.8 1.033.267.411.517.79.773.945a1.3 1.3 0 0 1-.117-.528c0-.194.045-.4.095-.622.055-.24.11-.5.11-.767 0-.405-.071-.539-.105-.555.167.027.511.238.59.9.1.822.205 1.033.388 1.166zm.794 5.484a2.638 2.638 0 1 0 0-5.278 2.667 2.667 0 0 0-2.683 2.633c0 1.456 1.227 2.645 2.683 2.645"/>
</svg>
